X: 1
T: Crazy Jake
M: 4/4
L: 1/8
R: reel
K: Gmix
|:G2BG dGBG|F2AF cFBA|G2BG dGBG|1 FAce dcBA:|2 FAcf edcB||
|:c2ec gcec|acgc fedB|c2ec gcec|1 dcBA GABd:|2 dcBA GEF^F|]
